img/about/skill_zeplin.svg

<svg height="40" viewBox="0 0 40 40" width="40" xmlns="http://www.w3.org/2000/svg"><g fill="none" fill-rule="evenodd"><path d="m0 0h40v40h-40z"/><g fill-rule="nonzero" transform="translate(0 4)"><path d="m6.16535106 22.0589946-2.09223099.7644371-.11134192 6.2235147 7.24221025-2.6456169c-2.48608229-.8325717-4.29912758-2.2999585-5.03863734-4.3423349" fill="#fdbd39"/><path d="m7.26049024 15.4765268-7.26049024 2.6522642 4.07312007 4.6963025 2.09223099-.7644371c-.73784794-2.0357291-.28250935-4.3340257 1.09513918-6.5841296" fill="#f69833"/><path d="m19.4765268 6.49439136c-9.244703 3.37681761-15.20565019 10.34648944-13.31117574 15.56460324l33.47735774-12.22933112c-1.8944745-5.21811383-10.9214791-6.71208974-20.166182-3.33527212" fill="#fecf33"/><path d="m26.3298712 25.3959285c9.244703-3.3768176 15.2156211-10.3149148 13.3111757-15.5646032l-33.47735766 12.2276693c1.90444537 5.2513502 10.92147906 6.7137516 20.16618196 3.3369339" fill="#ee6723"/><path d="m39.6410469 9.82966348-33.47569584 12.22933112c.65475696 1.8080598 3.1557956 2.6987952 6.66223514 2.6987952 3.4200249 0 7.797258-.8458662 12.3606149-2.5126714 9.2447029-3.3768176 15.7474034-8.8458662 14.4528458-12.41545492" fill="#f69833"/><path d="m32.9788118 7.13253012c-3.4183631 0-7.797258.84586622-12.3606149 2.51267138-9.2447029 3.3768176-15.74740338 8.8442044-14.45284584 12.4137931l33.47735774-12.22933112c-.6564188-1.80805982-3.1557956-2.69713336-6.663897-2.69713336" fill="#fdbd39"/><g fill="#ee6723" transform="translate(12.946)"><path d="m18.1836311 29.3776485c-.9854591 0-2.4378895-.8890735-4.3190694-2.6439551-2.2251766-2.0756128-4.77274616-5.1167428-7.17739926-8.5616951-2.40299127-3.4449522-4.37723307-6.8882426-5.56044869-9.69837969-1.28791026-3.06107187-1.47237225-4.94225176-.54673868-5.59368508.21437474-.14624014.46863316-.22102202.72787703-.21437474.75280432 0 2.22185293.56003323 4.93560448 3.2322393l.05982551.05816369-.00830909.08309098c-.01828002.19277109-.03489822.38554217-.0498546.57665144l-.02991275.37723307-.26589115-.26755297c-2.92480266-2.94640632-4.2110511-3.26381388-4.62982966-3.26381388-.11965102 0-.21437474.02326548-.28250935.07145825-.40216037.28250934-.42874948 1.66514333.82093893 4.63149148 1.16161196 2.75862065 3.10760282 6.15039465 5.47901952 9.55047775 2.37307852 3.4017449 4.88242626 6.396344 7.06938096 8.4353968 2.3564603 2.1985874 3.4183631 2.4362277 3.7656834 2.4362277.1196511 0 .2160366-.0249273.2891567-.0764438.423764-.2974657.423764-1.778147-.9688409-4.9721645l-.064811-.1462401.1395929-.0764437c.1395928-.0764437.275862-.1512256.4021603-.2243457l.1678438-.0947237.0781056.1761529c.9871208 2.2633984 1.9110926 5.1400083.699626 5.99086-.2143747.1462401-.4702949.221022-.7312006.2143747zm.0416909-.3489821v.1744911z"/><path d="m13.6086415 25.299543-.0132946.1728292c-.2343166 2.8915663-.8491899 6.3680931-2.4545077 6.5093478-.0332364.0033236-.0664728.0033236-.0980473.0033236-1.09015376 0-2.12214379-1.5621105-3.06439556-4.6414624-.89405899-2.9148317-1.5870378-6.8267553-1.95097632-11.0162027-.36560033-4.1894475-.36061487-8.16285835.01495638-11.18903201.40880765-3.29705027 1.18653926-5.01869547 2.31325301-5.11840465.0332364-.00332364.06813461-.00498546.10137101-.00498546.79102617 0 1.98255088.89572081 3.20232658 5.06688824l-.7960117.15288741c-.4071458-1.3926049-.8508517-2.52596593-1.29123387-3.30702119-.40714583-.71956792-.80432073-1.11674283-1.11508101-1.11674283-.00997092 0-.01994184 0-.03157458.00166182-.48857499.04320731-1.19983382 1.22642293-1.5953469 4.42376402-.36892398 2.97133361-.37390943 6.88658085-.01329456 11.02118825.36061487 4.1362692 1.04196095 7.990029 1.91940174 10.8516825.39218945 1.281263.82260075 2.3381804 1.24636477 3.0544246.38886581.6614043.76609891 1.0253428 1.06024101 1.0253428.0099709 0 .0199418 0 .0299127-.0016618.4669713-.0398837 1.3477358-1.2729539 1.7183216-5.6086415z"/></g></g></g></svg>

<svg xmlns="http://www.w3.org/2000/svg" width="40" height="40" viewBox="0 0 40 40">
  <g fill="none" fill-rule="evenodd">
    <rect width="40" height="40"/>
    <g fill-rule="nonzero" transform="translate(0 4)">
      <path fill="#FDBD39" d="M6.16535106,22.0589946 L4.07312007,22.8234317 L3.96177815,29.0469464 L11.2039884,26.4013295 C8.71790611,25.5687578 6.90486082,24.101371 6.16535106,22.0589946"/>
      <path fill="#F69833" d="M7.26049024,15.4765268 L0,18.128791 L4.07312007,22.8250935 L6.16535106,22.0606564 C5.42750312,20.0249273 5.88284171,17.7266307 7.26049024,15.4765268"/>
      <path fill="#FECF33" d="M19.4765268,6.49439136 C10.2318238,9.87120897 4.27087661,16.8408808 6.16535106,22.0589946 L39.6427088,9.82966348 C37.7482343,4.61154965 28.7212297,3.11757374 19.4765268,6.49439136"/>
      <path fill="#EE6723" d="M26.3298712,25.3959285 C35.5745742,22.0191109 41.5454923,15.0810137 39.6410469,9.8313253 L6.16368924,22.0589946 C8.06813461,27.3103448 17.0851683,28.7727462 26.3298712,25.3959285"/>
      <path fill="#F69833" d="M39.6410469,9.82966348 L6.16535106,22.0589946 C6.82010802,23.8670544 9.32114666,24.7577898 12.8275862,24.7577898 C16.2476111,24.7577898 20.6248442,23.9119236 25.1882011,22.2451184 C34.432904,18.8683008 40.9356045,13.3992522 39.6410469,9.82966348"/>
      <path fill="#FDBD39" d="M32.9788118,7.13253012 C29.5604487,7.13253012 25.1815538,7.97839634 20.6181969,9.6452015 C11.373494,13.0220191 4.87079352,18.4894059 6.16535106,22.0589946 L39.6427088,9.82966348 C38.98629,8.02160366 36.4869132,7.13253012 32.9788118,7.13253012"/>
      <g fill="#EE6723" transform="translate(12.946)">
        <path d="M18.1836311,29.3776485 C17.198172,29.3776485 15.7457416,28.488575 13.8645617,26.7336934 C11.6393851,24.6580806 9.09181554,21.6169506 6.68716244,18.1719983 C4.28417117,14.7270461 2.30992937,11.2837557 1.12671375,8.47361861 C-0.16119651,5.41254674 -0.345658496,3.53136685 0.579975073,2.87993353 C0.794349813,2.73369339 1.04860823,2.65891151 1.3078521,2.66555879 C2.06065642,2.66555879 3.52970503,3.22559202 6.24345658,5.89779809 L6.30328209,5.95596178 L6.294973,6.03905276 C6.27669298,6.23182385 6.26007478,6.42459493 6.2451184,6.6157042 L6.21520565,6.99293727 L5.9493145,6.7253843 C3.02451184,3.77897798 1.7382634,3.46157042 1.31948484,3.46157042 C1.19983382,3.46157042 1.1051101,3.4848359 1.03697549,3.53302867 C0.634815123,3.81553801 0.608226007,5.198172 1.85791442,8.16452015 C3.01952638,10.9231408 4.96551724,14.3149148 7.33693394,17.7149979 C9.71001246,21.1167428 12.2193602,24.1113419 14.4063149,26.1503947 C16.7627752,28.3489821 17.824678,28.5866224 18.1719983,28.5866224 C18.2916494,28.5866224 18.3880349,28.5616951 18.461155,28.5101786 C18.884919,28.2127129 18.884919,26.7320316 17.4923141,23.5380141 L17.4275031,23.391774 L17.567096,23.3153303 C17.7066888,23.2388866 17.842958,23.1641047 17.9692563,23.0909846 L18.1371001,22.9962609 L18.2152057,23.1724138 C19.2023265,25.4358122 20.1262983,28.3124221 18.9148317,29.1632738 C18.700457,29.3095139 18.4445368,29.3842958 18.1836311,29.3776485 Z M18.225322,29.0286664 L18.225322,29.2031575 L18.225322,29.0286664 Z"/>
        <path d="M13.6086415,25.299543 L13.5953469,25.4723722 C13.3610303,28.3639385 12.746157,31.8404653 11.1408392,31.98172 C11.1076028,31.9850436 11.0743664,31.9850436 11.0427919,31.9850436 C9.95263814,31.9850436 8.92064811,30.4229331 7.97839634,27.3435812 C7.08433735,24.4287495 6.39135854,20.5168259 6.02742002,16.3273785 C5.66181969,12.137931 5.66680515,8.16452015 6.0423764,5.13834649 C6.45118405,1.84129622 7.22891566,0.119651018 8.35562941,0.0199418363 C8.38886581,0.0166181969 8.42376402,0.0149563772 8.45700042,0.0149563772 C9.24802659,0.0149563772 10.4395513,0.910677192 11.659327,5.08184462 L10.8633153,5.23473203 C10.4561695,3.84212713 10.0124636,2.7087661 9.57208143,1.92771084 C9.1649356,1.20814292 8.7677607,0.81096801 8.45700042,0.81096801 C8.4470295,0.81096801 8.43705858,0.81096801 8.42542584,0.81262983 C7.93685085,0.855837142 7.22559202,2.03905276 6.83007894,5.23639385 C6.46115496,8.20772746 6.45616951,12.1229747 6.81678438,16.2575821 C7.17739925,20.3938513 7.85874533,24.2476111 8.73618612,27.1092646 C9.12837557,28.3905276 9.55878687,29.447445 9.98255089,30.1636892 C10.3714167,30.8250935 10.7486498,31.189032 11.0427919,31.189032 C11.0527628,31.189032 11.0627337,31.189032 11.0727046,31.1873702 C11.5396759,31.1474865 12.4204404,29.9144163 12.7910262,25.5787287 L13.6086415,25.299543 Z"/>
      </g>
    </g>
  </g>
</svg>
